X: 19171
T: Is Coma Leam Fhin Am Ministear
R: slip jig
M: 9/8
K: Dmajor
A|F/G/AA A2 d AFD|F/G/AA ABc d2 f|F/G/AA A2 d AFD|[=C2E2] c cGE "tr"G2 E|
F/G/AA A2 d AFD|F/G/AA ABc "tr"d2 f|F/G/AA A2 d AFD|[=C2E2] c cGE "tr"G2||
a|fda fdb afd|fda fdb "tr"g2 b|fda fdb afd|=c2 c' c'ge "tr"g2 a|
fda fdb afd|fda fdb "tr"g2 b|agf edc dAF|E/F/GE =cGE G2||

